img/app-store.svg

<svg width="141" height="48" viewBox="0 0 141 48" fill="none" xmlns="http://www.w3.org/2000/svg">
<path d="M5.75161 0H135.248C138.407 0 140.974 2.57938 140.974 5.75327V42.1906C140.974 45.3645 138.407 47.9439 135.248 47.9439H5.75161C2.59291 47.9439 0.0258789 45.3645 0.0258789 42.1906V5.75327C0.0258789 2.57938 2.59291 0 5.75161 0Z" fill="black"/>
<path d="M30.878 22.8787C30.8494 19.4459 33.6741 17.7775 33.7982 17.7008C32.195 15.3611 29.7138 15.0351 28.8454 15.0063C26.7651 14.7858 24.742 16.2625 23.6827 16.2625C22.6044 16.2625 20.963 15.0351 19.2071 15.0639C16.9454 15.1022 14.8174 16.4159 13.6627 18.4679C11.2674 22.639 13.0519 28.7758 15.3518 32.1511C16.5065 33.8003 17.8425 35.651 19.6079 35.5839C21.3256 35.5167 21.9745 34.4811 24.0453 34.4811C26.1066 34.4811 26.7078 35.5839 28.5019 35.5455C30.3532 35.5167 31.5079 33.8866 32.6244 32.2182C33.9509 30.3292 34.4853 28.4594 34.5043 28.3635C34.4566 28.3443 30.9162 26.9827 30.878 22.8787Z" fill="white"/>
<path d="M27.4902 12.7913C28.4159 11.6311 29.0457 10.0489 28.8739 8.43799C27.5379 8.49552 25.8584 9.3681 24.8946 10.5092C24.0453 11.516 23.2818 13.1557 23.4727 14.6995C24.9805 14.8145 26.5264 13.9324 27.4902 12.7913Z" fill="white"/>
<path d="M55.804 35.3443H53.3992L52.0823 31.1827H47.5017L46.2516 35.3443H43.9136L48.4464 21.1816H51.2521L55.804 35.3443ZM51.691 29.4376L50.4982 25.7459C50.3741 25.3623 50.1355 24.4802 49.792 23.0802H49.7443C49.6011 23.6843 49.3816 24.5761 49.0763 25.7459L47.9025 29.4376H51.691Z" fill="white"/>
<path d="M67.4558 30.1185C67.4558 31.8541 66.9882 33.2253 66.0434 34.2321C65.2037 35.1334 64.154 35.5745 62.9134 35.5745C61.5678 35.5745 60.604 35.0951 60.0123 34.1266V39.4867H57.7507V28.4884C57.7507 27.3953 57.7221 26.283 57.6648 25.1323H59.6497L59.7738 26.7528H59.8119C60.5658 25.5351 61.711 24.9214 63.2378 24.9214C64.4402 24.9214 65.4327 25.4008 66.2343 26.3501C67.055 27.309 67.4558 28.5555 67.4558 30.1185ZM65.156 30.1952C65.156 29.198 64.9365 28.3829 64.488 27.7405C64.0013 27.0693 63.3428 26.7337 62.5221 26.7337C61.9686 26.7337 61.4629 26.9254 61.0048 27.2898C60.5563 27.6638 60.2509 28.1432 60.1173 28.7473C60.0505 29.0254 60.0123 29.2555 60.0123 29.4377V31.1445C60.0123 31.8828 60.2414 32.5157 60.6899 33.0239C61.1384 33.5321 61.7301 33.791 62.4553 33.791C63.3046 33.791 63.9631 33.4554 64.4402 32.8034C64.9174 32.1417 65.156 31.2787 65.156 30.1952Z" fill="white"/>
<path d="M79.1365 30.1185C79.1365 31.8541 78.6689 33.2253 77.7241 34.2321C76.8843 35.1334 75.8346 35.5745 74.594 35.5745C73.2485 35.5745 72.2847 35.0951 71.693 34.1266V39.4867H69.4313V28.4884C69.4313 27.3953 69.4027 26.283 69.3455 25.1323H71.3304L71.4544 26.7528H71.4926C72.2465 25.5351 73.3916 24.9214 74.9185 24.9214C76.1209 24.9214 77.1134 25.4008 77.915 26.3501C78.7357 27.309 79.1365 28.5555 79.1365 30.1185ZM76.8366 30.1952C76.8366 29.198 76.6171 28.3829 76.1686 27.7405C75.6819 27.0693 75.0235 26.7337 74.2028 26.7337C73.6493 26.7337 73.1435 26.9254 72.6855 27.2898C72.237 27.6638 71.9411 28.1432 71.798 28.7473C71.7312 29.0254 71.693 29.2555 71.693 29.4377V31.1445C71.693 31.8828 71.922 32.5157 72.3706 33.0239C72.8191 33.5321 73.4107 33.791 74.136 33.791C74.9853 33.791 75.6533 33.4554 76.1209 32.8034C76.6076 32.1417 76.8366 31.2787 76.8366 30.1952Z" fill="white"/>
<path d="M92.21 31.3747C92.21 32.5829 91.7901 33.561 90.9599 34.3185C90.0438 35.1431 88.765 35.5554 87.1237 35.5554C85.6063 35.5554 84.3944 35.2582 83.4783 34.6733L84.0031 32.7843C84.9956 33.3692 86.0835 33.6664 87.2668 33.6664C88.1161 33.6664 88.7841 33.4747 89.2517 33.0911C89.7289 32.7076 89.9674 32.1898 89.9674 31.5473C89.9674 30.972 89.767 30.4925 89.3853 30.0994C88.9941 29.7063 88.3451 29.3419 87.4386 29.0063C84.9479 28.0762 83.7168 26.7242 83.7168 24.9502C83.7168 23.79 84.1558 22.8407 85.0242 22.0928C85.8926 21.3544 87.0473 20.9805 88.4883 20.9805C89.767 20.9805 90.8358 21.201 91.6851 21.6517L91.1126 23.4927C90.311 23.0612 89.4139 22.8407 88.4024 22.8407C87.6103 22.8407 86.9805 23.0421 86.532 23.4256C86.1598 23.7804 85.969 24.2023 85.969 24.7105C85.969 25.2667 86.1884 25.7365 86.6179 26.0913C86.9901 26.4269 87.6771 26.7913 88.6696 27.1844C89.8815 27.6734 90.769 28.2488 91.3416 28.9104C91.9237 29.572 92.21 30.3967 92.21 31.3747Z" fill="white"/>
<path d="M99.6918 26.8391H97.2012V31.7965C97.2012 33.0527 97.6401 33.6855 98.5181 33.6855C98.9189 33.6855 99.2529 33.6472 99.5201 33.5801L99.5869 35.306C99.1384 35.469 98.5562 35.5553 97.831 35.5553C96.934 35.5553 96.2469 35.2773 95.7411 34.7307C95.2353 34.1841 94.9872 33.2636 94.9872 31.9787V26.8295H93.5081V25.1323H94.9872V23.2625L97.2012 22.5913V25.1323H99.6918V26.8391Z" fill="white"/>
<path d="M110.895 30.157C110.895 31.7296 110.447 33.0145 109.559 34.0213C108.624 35.0569 107.383 35.5747 105.837 35.5747C104.349 35.5747 103.156 35.0761 102.268 34.0884C101.381 33.1008 100.942 31.8447 100.942 30.3296C100.942 28.7475 101.4 27.453 102.307 26.4462C103.223 25.4394 104.454 24.9312 106 24.9312C107.488 24.9312 108.691 25.4298 109.597 26.427C110.466 27.3859 110.895 28.6324 110.895 30.157ZM108.557 30.205C108.557 29.2653 108.357 28.4694 107.956 27.7982C107.479 26.9832 106.801 26.5804 105.923 26.5804C105.017 26.5804 104.32 26.9832 103.852 27.7982C103.442 28.4694 103.251 29.2845 103.251 30.2529C103.251 31.1926 103.452 31.9981 103.852 32.6597C104.339 33.4748 105.026 33.8775 105.904 33.8775C106.763 33.8775 107.441 33.4652 107.937 32.6405C108.347 31.9501 108.557 31.1447 108.557 30.205Z" fill="white"/>
<path d="M118.243 27.1268C118.024 27.0885 117.785 27.0693 117.527 27.0693C116.735 27.0693 116.115 27.3665 115.686 27.9706C115.314 28.498 115.123 29.1788 115.123 29.9843V35.3444H112.861V28.3446C112.861 27.1652 112.842 26.0912 112.794 25.1323H114.76L114.846 27.0885H114.913C115.151 26.4172 115.523 25.8707 116.039 25.4679C116.545 25.1036 117.088 24.9214 117.671 24.9214C117.881 24.9214 118.071 24.9406 118.234 24.9597L118.243 27.1268Z" fill="white"/>
<path d="M128.339 29.7541C128.339 30.1568 128.311 30.502 128.253 30.7801H121.478C121.507 31.7869 121.831 32.5636 122.461 33.091C123.034 33.5608 123.768 33.8006 124.675 33.8006C125.677 33.8006 126.593 33.6376 127.414 33.3211L127.767 34.8937C126.803 35.3156 125.667 35.5265 124.36 35.5265C122.785 35.5265 121.545 35.0567 120.648 34.1266C119.751 33.1965 119.302 31.9403 119.302 30.3774C119.302 28.8432 119.722 27.5583 120.562 26.5323C121.44 25.4391 122.623 24.8926 124.112 24.8926C125.572 24.8926 126.688 25.4391 127.433 26.5323C128.034 27.4144 128.339 28.4788 128.339 29.7541ZM126.183 29.1692C126.202 28.498 126.049 27.913 125.744 27.424C125.352 26.7912 124.751 26.4747 123.95 26.4747C123.215 26.4747 122.614 26.7816 122.156 27.3953C121.783 27.8843 121.554 28.4788 121.488 29.1596L126.183 29.1692Z" fill="white"/>
<path d="M50.6032 16.1187H49.4199L48.771 14.0763H46.5188L45.8986 16.1187H44.7534L46.9769 9.15723H48.3511L50.6032 16.1187ZM48.5706 13.2133L47.9884 11.3914C47.9312 11.2092 47.8167 10.7681 47.6354 10.0777H47.6163C47.5399 10.375 47.4445 10.8065 47.2823 11.3914L46.7097 13.2133H48.5706Z" fill="white"/>
<path d="M56.1763 11.0942L54.2868 16.1188H53.2085L51.3762 11.0942H52.5691L53.4184 13.7503C53.5615 14.1914 53.6856 14.6133 53.781 15.016H53.8097C53.8955 14.6517 54.0196 14.2298 54.1723 13.7503L55.0121 11.0942H56.1763Z" fill="white"/>
<path d="M60.2032 16.1186L60.1174 15.5433H60.0887C59.7452 16.0036 59.2585 16.2337 58.6287 16.2337C57.7316 16.2337 57.1018 15.6008 57.1018 14.757C57.1018 13.5201 58.1706 12.8776 60.0219 12.8776V12.7817C60.0219 12.1201 59.6688 11.7941 58.9818 11.7941C58.4855 11.7941 58.0561 11.9187 57.6744 12.1681L57.4453 11.4393C57.9034 11.1516 58.4855 11.0078 59.1631 11.0078C60.4704 11.0078 61.1289 11.6982 61.1289 13.0886V14.9392C61.1289 15.4474 61.148 15.8406 61.2052 16.1378L60.2032 16.1186ZM60.0506 13.616C58.8195 13.616 58.1992 13.9132 58.1992 14.6324C58.1992 15.1598 58.5142 15.4186 58.9627 15.4186C59.5257 15.4186 60.0506 14.9872 60.0506 14.3926V13.616Z" fill="white"/>
<path d="M63.6006 10.2699C63.2284 10.2699 62.9421 9.98219 62.9421 9.59864C62.9421 9.21509 63.238 8.93701 63.6197 8.93701C64.0014 8.93701 64.3068 9.21509 64.2972 9.59864C64.2972 10.0014 64.0109 10.2699 63.6006 10.2699ZM63.0662 11.0945H64.1732V16.1094H63.0662V11.0945Z" fill="white"/>
<path d="M66.1484 8.79297H67.2554V16.1092H66.1484V8.79297Z" fill="white"/>
<path d="M71.9696 16.1189L71.8837 15.5436H71.8551C71.5115 16.0039 71.0249 16.234 70.395 16.234C69.498 16.234 68.8682 15.6011 68.8682 14.7573C68.8682 13.5204 69.937 12.8779 71.7883 12.8779V12.782C71.7883 12.1204 71.4352 11.7944 70.7481 11.7944C70.2519 11.7944 69.8225 11.9191 69.4407 12.1684L69.2117 11.43C69.6698 11.1424 70.2519 10.9985 70.9294 10.9985C72.2368 10.9985 72.8953 11.6889 72.8953 13.0793V14.9299C72.8953 15.4381 72.9143 15.8313 72.9621 16.1285H71.9696V16.1189ZM71.8169 13.6163C70.5859 13.6163 69.9656 13.9135 69.9656 14.6327C69.9656 15.1601 70.2805 15.419 70.729 15.419C71.2921 15.419 71.8169 14.9875 71.8169 14.393V13.6163Z" fill="white"/>
<path d="M77.3996 16.2339C76.6935 16.2339 76.1686 15.9366 75.8251 15.3421H75.806L75.7392 16.1188H74.7944C74.8231 15.7161 74.8326 15.2654 74.8326 14.7668V8.79297H75.9491V11.8326H75.9682C76.3022 11.2765 76.8271 10.9984 77.5619 10.9984C78.7643 10.9984 79.604 12.034 79.604 13.5394C79.604 15.0928 78.6688 16.2339 77.3996 16.2339ZM77.1706 11.871C76.5312 11.871 75.9491 12.4271 75.9491 13.2038V14.086C75.9491 14.7764 76.474 15.3421 77.1515 15.3421C77.9817 15.3421 78.478 14.6613 78.478 13.5778C78.478 12.5614 77.9627 11.871 77.1706 11.871Z" fill="white"/>
<path d="M81.2454 8.79297H82.3523V16.1092H81.2454V8.79297Z" fill="white"/>
<path d="M88.3929 13.8748H85.0625C85.0815 14.8241 85.7114 15.3611 86.637 15.3611C87.1333 15.3611 87.5818 15.2748 87.9826 15.1214L88.1543 15.898C87.6867 16.109 87.1333 16.2049 86.4843 16.2049C84.9193 16.2049 83.9937 15.2172 83.9937 13.6734C83.9937 12.1392 84.9384 10.979 86.3603 10.979C87.6295 10.979 88.4406 11.9283 88.4406 13.3666C88.4406 13.568 88.4311 13.7406 88.3929 13.8748ZM87.3814 13.0789C87.3814 12.3023 86.9901 11.7557 86.2839 11.7557C85.6446 11.7557 85.1483 12.3118 85.072 13.0789H87.3814Z" fill="white"/>
<path d="M95.1206 16.234C93.6606 16.234 92.7158 15.1409 92.7158 13.6546C92.7158 12.1012 93.6797 10.9985 95.2065 10.9985C96.6475 10.9985 97.6113 12.0437 97.6113 13.5683C97.6113 15.1313 96.6189 16.234 95.1206 16.234ZM95.1684 11.8136C94.3667 11.8136 93.8514 12.5711 93.8514 13.6163C93.8514 14.6519 94.3763 15.3998 95.1588 15.3998C95.9413 15.3998 96.4662 14.5943 96.4662 13.5875C96.4566 12.5711 95.9509 11.8136 95.1684 11.8136Z" fill="white"/>
<path d="M103.576 16.1188H102.469V13.2325C102.469 12.3408 102.125 11.8997 101.457 11.8997C100.799 11.8997 100.35 12.4654 100.35 13.1271V16.1092H99.2433V12.5326C99.2433 12.0915 99.2337 11.612 99.2051 11.0942H100.178L100.226 11.8709H100.255C100.551 11.334 101.161 10.9888 101.839 10.9888C102.889 10.9888 103.576 11.7942 103.576 13.1079V16.1188Z" fill="white"/>
<path d="M110.838 11.938H109.616V14.3736C109.616 14.9968 109.836 15.3037 110.265 15.3037C110.456 15.3037 110.628 15.2845 110.762 15.2557L110.79 16.0995C110.571 16.1858 110.284 16.2242 109.931 16.2242C109.053 16.2242 108.538 15.7352 108.538 14.4694V11.938H107.813V11.1038H108.538V10.1833L109.626 9.84766V11.0942H110.847V11.938" fill="white"/>
<path d="M116.716 16.1188H115.609V13.2518C115.609 12.3504 115.266 11.8997 114.598 11.8997C114.025 11.8997 113.491 12.2929 113.491 13.0887V16.1092H112.384V8.79297H113.491V11.8038H113.51C113.863 11.2573 114.359 10.9888 115.008 10.9888C116.067 10.9888 116.716 11.8134 116.716 13.1271V16.1188Z" fill="white"/>
<path d="M122.385 13.8748H119.054C119.073 14.8241 119.703 15.3611 120.629 15.3611C121.125 15.3611 121.573 15.2748 121.974 15.1214L122.146 15.898C121.678 16.109 121.125 16.2049 120.476 16.2049C118.911 16.2049 117.985 15.2172 117.985 13.6734C117.985 12.1392 118.93 10.979 120.352 10.979C121.621 10.979 122.432 11.9283 122.432 13.3666C122.432 13.568 122.423 13.7406 122.385 13.8748ZM121.373 13.0789C121.373 12.3023 120.982 11.7557 120.276 11.7557C119.636 11.7557 119.131 12.3118 119.064 13.0789H121.373Z" fill="white"/>
</svg>

<svg width="141" height="48" viewBox="0 0 141 48" fill="none" xmlns="http://www.w3.org/2000/svg"><path d="M5.752 0h129.496c3.159 0 5.726 2.58 5.726 5.753v36.438c0 3.173-2.567 5.753-5.726 5.753H5.752c-3.16 0-5.726-2.58-5.726-5.753V5.753C.026 2.58 2.593 0 5.752 0z" fill="#000"/><path d="M30.878 22.879c-.029-3.433 2.796-5.102 2.92-5.178-1.603-2.34-4.084-2.666-4.953-2.695-2.08-.22-4.103 1.256-5.162 1.256-1.079 0-2.72-1.227-4.476-1.198-2.262.038-4.39 1.352-5.544 3.404-2.396 4.171-.611 10.308 1.689 13.683 1.154 1.65 2.49 3.5 4.256 3.433 1.718-.067 2.366-1.103 4.437-1.103 2.062 0 2.663 1.103 4.457 1.064 1.851-.028 3.006-1.658 4.122-3.327 1.327-1.889 1.861-3.759 1.88-3.855-.047-.019-3.588-1.38-3.626-5.484zM27.49 12.791c.926-1.16 1.556-2.742 1.384-4.353-1.336.058-3.016.93-3.98 2.071-.849 1.007-1.612 2.647-1.421 4.19 1.508.116 3.053-.767 4.017-1.908zm28.314 22.553h-2.405l-1.317-4.161h-4.58l-1.25 4.161h-2.338l4.532-14.162h2.806l4.552 14.162zm-4.113-5.906l-1.193-3.692c-.124-.384-.362-1.266-.706-2.666h-.048a119.39 119.39 0 01-.668 2.666l-1.173 3.692h3.788zm15.765.681c0 1.735-.468 3.106-1.413 4.113-.84.901-1.889 1.343-3.13 1.343-1.345 0-2.309-.48-2.9-1.448v5.36H57.75V28.488c0-1.093-.029-2.205-.086-3.356h1.985l.124 1.62h.038c.754-1.217 1.899-1.83 3.426-1.83 1.202 0 2.195.479 2.996 1.428.821.959 1.222 2.205 1.222 3.768zm-2.3.076c0-.997-.22-1.812-.668-2.454-.487-.672-1.145-1.007-1.966-1.007-.553 0-1.06.191-1.517.556a2.57 2.57 0 00-.888 1.457 3.12 3.12 0 00-.105.69v1.707c0 .739.23 1.372.678 1.88.448.508 1.04.767 1.765.767.85 0 1.508-.336 1.985-.988.477-.661.716-1.524.716-2.608zm13.98-.076c0 1.735-.467 3.106-1.412 4.113-.84.901-1.89 1.343-3.13 1.343-1.345 0-2.31-.48-2.901-1.448v5.36h-2.262V28.488a67.67 67.67 0 00-.085-3.356h1.984l.124 1.62h.039c.754-1.217 1.899-1.83 3.425-1.83 1.203 0 2.195.479 2.997 1.428.82.959 1.221 2.205 1.221 3.768zm-2.3.076c0-.997-.219-1.812-.667-2.454-.487-.672-1.145-1.007-1.966-1.007-.554 0-1.06.191-1.517.556a2.622 2.622 0 00-.888 1.457 3.12 3.12 0 00-.105.69v1.707c0 .739.229 1.372.678 1.88.448.508 1.04.767 1.765.767.85 0 1.517-.336 1.985-.988.487-.661.716-1.524.716-2.608zm15.374 1.18c0 1.208-.42 2.186-1.25 2.944-.916.824-2.195 1.236-3.836 1.236-1.518 0-2.73-.297-3.646-.882l.525-1.889c.993.585 2.08.882 3.264.882.85 0 1.517-.191 1.985-.575.477-.383.715-.901.715-1.544 0-.575-.2-1.055-.582-1.448-.39-.393-1.04-.757-1.946-1.093-2.491-.93-3.722-2.282-3.722-4.056 0-1.16.439-2.11 1.307-2.857.869-.739 2.023-1.113 3.464-1.113 1.279 0 2.348.221 3.197.672l-.572 1.84c-.802-.43-1.7-.651-2.71-.651-.793 0-1.422.201-1.871.585-.372.354-.563.776-.563 1.285 0 .556.22 1.026.649 1.38.372.336 1.06.7 2.052 1.093 1.212.49 2.099 1.065 2.672 1.726.582.662.868 1.487.868 2.465zm7.482-4.535h-2.49v4.957c0 1.256.438 1.888 1.316 1.888.4 0 .735-.038 1.002-.105l.067 1.726c-.449.163-1.03.25-1.756.25-.897 0-1.584-.279-2.09-.825-.506-.547-.754-1.467-.754-2.752v-5.15h-1.479v-1.697h1.48v-1.87l2.213-.67v2.54h2.49v1.707zm11.203 3.317c0 1.573-.448 2.857-1.336 3.864-.935 1.036-2.176 1.554-3.722 1.554-1.488 0-2.681-.499-3.569-1.487-.887-.987-1.326-2.243-1.326-3.758 0-1.582.458-2.877 1.365-3.884.916-1.007 2.147-1.515 3.693-1.515 1.488 0 2.691.499 3.597 1.496.869.959 1.298 2.205 1.298 3.73zm-2.338.048c0-.94-.2-1.736-.601-2.407-.477-.815-1.155-1.218-2.033-1.218-.906 0-1.603.403-2.071 1.218-.41.671-.601 1.487-.601 2.455 0 .94.201 1.745.601 2.407.487.815 1.174 1.218 2.052 1.218.859 0 1.537-.413 2.033-1.237.41-.69.62-1.496.62-2.436zm9.686-3.078a4.166 4.166 0 00-.716-.058c-.792 0-1.412.297-1.841.902-.372.527-.563 1.208-.563 2.013v5.36h-2.262v-7c0-1.179-.019-2.253-.067-3.212h1.966l.086 1.956h.067c.238-.67.61-1.217 1.126-1.62.506-.364 1.049-.547 1.632-.547.21 0 .4.02.563.039l.009 2.167zm10.096 2.627c0 .403-.028.748-.086 1.026h-6.775c.029 1.007.353 1.784.983 2.311.573.47 1.307.71 2.214.71 1.002 0 1.918-.163 2.739-.48l.353 1.573c-.964.422-2.1.633-3.407.633-1.575 0-2.815-.47-3.712-1.4-.897-.93-1.346-2.187-1.346-3.75 0-1.534.42-2.819 1.26-3.845.878-1.093 2.061-1.64 3.55-1.64 1.46 0 2.576.547 3.321 1.64.601.882.906 1.947.906 3.222zm-2.156-.585c.019-.671-.134-1.256-.439-1.745-.392-.633-.993-.95-1.794-.95-.735 0-1.336.308-1.794.921-.373.49-.602 1.084-.668 1.765l4.695.01zm-75.58-13.05H49.42l-.649-2.043h-2.252l-.62 2.043h-1.146l2.224-6.962h1.374l2.252 6.962zm-2.032-2.906l-.583-1.822c-.057-.182-.171-.623-.353-1.313h-.019c-.076.297-.172.729-.334 1.313l-.572 1.822h1.86zm7.605-2.119l-1.89 5.025h-1.078l-1.832-5.025h1.193l.85 2.656c.143.441.267.863.362 1.266h.029c.085-.364.21-.786.362-1.266l.84-2.656h1.164zm4.027 5.025l-.086-.576h-.028c-.344.46-.83.69-1.46.69-.897 0-1.527-.632-1.527-1.476 0-1.237 1.069-1.88 2.92-1.88v-.095c0-.662-.353-.988-1.04-.988-.496 0-.926.125-1.308.374l-.229-.729c.458-.287 1.04-.431 1.718-.431 1.307 0 1.966.69 1.966 2.08v1.851c0 .508.019.902.076 1.199l-1.002-.02zm-.152-2.503c-1.232 0-1.852.297-1.852 1.016 0 .528.315.787.764.787.563 0 1.088-.432 1.088-1.026v-.777zM63.6 10.27a.652.652 0 01-.658-.671c0-.384.296-.662.678-.662.381 0 .687.278.677.662 0 .402-.286.67-.696.67zm-.534.825h1.107v5.014h-1.107v-5.015zm3.082-2.302h1.107v7.316h-1.107V8.793zm5.822 7.326l-.086-.575h-.029c-.344.46-.83.69-1.46.69-.897 0-1.527-.633-1.527-1.477 0-1.237 1.069-1.88 2.92-1.88v-.095c0-.662-.353-.988-1.04-.988-.496 0-.925.125-1.307.374l-.23-.738c.459-.288 1.04-.431 1.718-.431 1.308 0 1.966.69 1.966 2.08v1.85c0 .51.02.902.067 1.2h-.992v-.01zm-.153-2.503c-1.231 0-1.851.298-1.851 1.017 0 .527.315.786.763.786.563 0 1.088-.431 1.088-1.026v-.777zm5.583 2.618c-.707 0-1.231-.297-1.575-.892h-.019l-.067.777h-.945c.03-.403.039-.854.039-1.352V8.793h1.116v3.04h.02c.333-.556.858-.835 1.593-.835 1.202 0 2.042 1.036 2.042 2.541 0 1.554-.935 2.695-2.204 2.695zm-.23-4.363c-.639 0-1.22.556-1.22 1.333v.882c0 .69.524 1.256 1.201 1.256.83 0 1.327-.68 1.327-1.764 0-1.017-.515-1.707-1.307-1.707zm4.075-3.078h1.107v7.316h-1.107V8.793zm7.148 5.082h-3.33c.019.95.648 1.486 1.574 1.486a3.73 3.73 0 001.346-.24l.171.777c-.467.211-1.02.307-1.67.307-1.565 0-2.49-.988-2.49-2.532 0-1.534.944-2.694 2.366-2.694 1.27 0 2.08.95 2.08 2.388 0 .201-.009.374-.047.508zm-1.012-.796c0-.777-.39-1.323-1.097-1.323-.64 0-1.136.556-1.212 1.323h2.31zm7.739 3.155c-1.46 0-2.404-1.093-2.404-2.58 0-1.553.964-2.655 2.49-2.655 1.441 0 2.405 1.045 2.405 2.57 0 1.562-.992 2.665-2.49 2.665zm.048-4.42c-.801 0-1.317.757-1.317 1.802 0 1.036.525 1.784 1.308 1.784.782 0 1.307-.806 1.307-1.813-.01-1.016-.515-1.773-1.298-1.773zm8.408 4.305h-1.107v-2.886c0-.892-.344-1.333-1.012-1.333-.658 0-1.107.565-1.107 1.227v2.982h-1.107v-3.576c0-.441-.01-.921-.038-1.439h.973l.048.777h.029c.296-.537.906-.882 1.584-.882 1.05 0 1.737.805 1.737 2.119v3.01zm7.262-4.181h-1.222v2.436c0 .623.22.93.649.93.191 0 .363-.02.497-.048l.028.843c-.219.087-.506.125-.859.125-.878 0-1.393-.489-1.393-1.755v-2.531h-.725v-.834h.725v-.92l1.088-.336v1.246h1.221v.844m5.869 4.181h-1.107v-2.867c0-.902-.343-1.352-1.011-1.352-.573 0-1.107.393-1.107 1.189v3.02h-1.107V8.793h1.107v3.01h.019c.353-.546.849-.814 1.498-.814 1.059 0 1.708.824 1.708 2.138v2.992zm5.669-2.244h-3.331c.019.95.649 1.486 1.575 1.486.496 0 .944-.086 1.345-.24l.172.777c-.468.211-1.021.307-1.67.307-1.565 0-2.491-.988-2.491-2.532 0-1.534.945-2.694 2.367-2.694 1.269 0 2.08.95 2.08 2.388 0 .201-.009.374-.047.508zm-1.012-.796c0-.777-.391-1.323-1.097-1.323-.64 0-1.145.556-1.212 1.323h2.309z" fill="#fff"/></svg>
